db/projects/omisego/asset-omg-logo-square.svg

<?xml version="1.0" encoding="UTF-8"?>
<svg width="256px" height="256px" viewBox="0 0 256 256" version="1.1" xmlns="http://www.w3.org/2000/svg" xmlns:xlink="http://www.w3.org/1999/xlink">
    <!-- Generator: Sketch 47.1 (45422) - http://www.bohemiancoding.com/sketch -->
    <title>OmiseGO</title>
    <desc>Created with Sketch.</desc>
    <defs></defs>
    <g id="Classic" stroke="none" stroke-width="1" fill="none" fill-rule="evenodd">
        <g transform="translate(-2176.000000, -1122.000000)" id="OmiseGO" fill="#1A53F0">
            <g transform="translate(2176.000000, 1122.000000)">
                <path d="M104.894276,61.9382192 C104.894276,85.7855228 85.6165737,105.119419 61.8361465,105.119419 C38.0555056,105.119419 18.7803668,85.7855228 18.7803668,61.9382192 C18.7803668,38.0909157 38.0555056,18.7651388 61.8333689,18.7651388 C85.6112321,18.7651388 104.87291,38.1041628 104.915856,61.9461248 L104.894276,61.9461248 L104.894276,61.9382192 Z M61.8333689,1.24684583e-05 C32.4308392,-0.0185761726 7.08234265,20.7494228 1.23867214,49.6498455 C-4.60499836,78.5504818 10.6690957,107.576538 37.7429173,119.05278 C69.2743805,132.29708 105.572441,117.472105 118.816314,85.9404281 C128.447153,63.0110189 123.426297,36.5444262 106.066856,18.7356534 L123.579066,18.7356534 L123.579066,1.24684583e-05 L61.8333689,1.24684583e-05 Z M193.732597,105.143563 C169.962639,105.143563 150.676817,85.8122306 150.676817,61.9621494 C150.676817,38.1120683 169.946615,18.7811635 193.735375,18.7811635 C217.523921,18.7811635 236.793505,38.1120683 236.793505,61.9621494 C236.75355,85.8017612 217.48653,105.10083 193.735375,105.140785 L193.732597,105.143563 Z M193.732597,0.0027900815 C159.623936,0.0027900815 131.970876,27.7334103 131.970876,61.9409969 C131.970876,96.1481561 159.623936,123.87899 193.732597,123.87899 C227.841258,123.87899 255.494532,96.1481561 255.494532,61.9409969 C255.494532,27.7334103 227.846386,1.24684583e-05 193.735375,1.24684583e-05 L193.732597,0.0027900815 Z M61.8333689,237.264359 C38.0634111,237.264359 18.7775892,217.933241 18.7775892,194.083159 C18.7775892,170.233078 38.0555056,150.90196 61.8333689,150.90196 C85.6112321,150.90196 104.891712,170.233078 104.891712,194.083159 C104.851758,217.911874 85.5977714,237.234874 61.8333689,237.264359 L61.8333689,237.264359 Z M61.8333689,132.123586 C27.7247081,132.123586 0.0742112934,159.85442 0.0742112934,194.061793 C0.0742112934,228.269166 27.7274857,256 61.8361465,256 C95.9445936,256 123.597868,228.269166 123.597868,194.061793 C123.597868,159.85442 95.9471575,132.123586 61.8361465,132.123586 L61.8333689,132.123586 Z" id="Logo"></path>
            </g>
        </g>
    </g>
</svg>

<svg width="256" height="256" xmlns="http://www.w3.org/2000/svg"><path d="M104.894 61.938c0 23.848-19.277 43.181-43.058 43.181-23.78 0-43.056-19.333-43.056-43.18 0-23.848 19.276-43.174 43.053-43.174 23.778 0 43.04 19.34 43.083 43.181h-.022v-.008zM61.834 0C32.43-.019 7.081 20.75 1.238 49.65c-5.844 28.9 9.43 57.927 36.504 69.403 31.531 13.244 67.83-1.58 81.073-33.113 9.631-22.929 4.61-49.396-12.75-67.204h17.513V0H61.833zm131.899 105.144c-23.77 0-43.056-19.332-43.056-43.182s19.27-43.18 43.058-43.18c23.789 0 43.059 19.33 43.059 43.18-.04 23.84-19.307 43.139-43.059 43.179l-.002.003zm0-105.141c-34.11 0-61.762 27.73-61.762 61.938 0 34.207 27.653 61.938 61.762 61.938 34.108 0 61.762-27.73 61.762-61.938S227.846 0 193.735 0l-.002.003zm-131.9 237.261c-23.77 0-43.055-19.33-43.055-43.18s19.278-43.182 43.055-43.182c23.778 0 43.059 19.331 43.059 43.181-.04 23.829-19.294 43.152-43.059 43.181zm0-105.14c-34.108 0-61.759 27.73-61.759 61.938C.074 228.269 27.727 256 61.836 256s61.762-27.73 61.762-61.938-27.65-61.938-61.762-61.938h-.003z" fill="#1A53F0" fill-rule="evenodd"/></svg>
